e: 1
T: Breaking And Brendaning
C: Kathleen Fownes
N: This tune was written by Kathleen Fownes for Brendan Hearn!
S: handout at RJ practice 2021-11-23
S: https://thesession.org/tunes/19411 2021-11-24
R: reel
Z: 2021 John Chambers <jc:trillian.mit.edu>
M: C|
L: 1/8
K: A
|:\
agfe fc c/c/c | ecAB- BAGA | FAcA BAFG | ABce- eceg |
agfe fc c/c/c | ecAB- BAGA | FAcA BAFA | EAcB A4 :|
|:\
d3c BAFA | BABc defg | afge fdec | dBcA BAFA |
d3c BAFA | BABc defg | agfe fcag | fece f4 :|
